X:1036
T:Shirley's Reel
R:reel
C:Willy Taylor (1916-2000), Northumberland
Z:id:hn-reel-1036
M:C|
L:1/8
K:A
c2Bc BA~A2 | Acea fe~e2 | faaf ecce | afeA cBBe |
c2Bc BA~A2 | Acea fe~e2 | faaf eccA |1 BABc A2ed :|2 BABc A2cd ||
|: ~e3f eAce | dfaf eccd | ~e3f eccB | Adcd B2cd |
e2ef eAce | dfaf ecce | d2fd c2ec |1 BABc A2cd :|2 BABc A2ed || 

